X: 5155
T: Bright Lady, The
R: waltz
M: 3/4
K: Dmixolydian
A|F>G A2 A2|A/G/A/B/ c4|AB3 A2|
(G2 G)F G2|A2 B^c d2|d2 e2 =f2|
ed e2 d=c|c2 de d2|A2 d2 ^d=d/c/|
c2 A2 G2|=F3G/A/(G2|G2) F<D DB|
=c2 c^c d2|d2 ^d=d d2|e/d/c/A/ GA/G/ F<D|
D2 G<E A2|(D4 D2)|A<G|AB/^c/ (d2 d)e|
=fe/<d/ e>e/d/ =c2|d<e d2 e/d/c/A/|G2 E(=F F)G|
(A2 A2) {BAB}GA|AB/c/ (d2 d)e|=fe/d/ e>e/d/ =c2|
d<e d4|A2 d2 =fe/c/|d<A GE (=F2|
F)G/A/ G2 {A/G/A/} G>F|(D4 D)>B|c4 d>e|
d4 e/d/c/A/|G2 E2 =F<D|G<E A2 (D2|D2 D4)||

